X: 1
T: Love of My Life
C: J-38
M: 6/8
Z: Transcribed to abc by Mary Lou Knack
R: jig
K: G
D| "G"GFG "D"AGA| "G"Bge dBA| BAB GAB| "C"AGE E2D|
   "G"GFG "D"AGA| "G"Bge dBA| BAB GAB| "D"AGF "G"G2:|
\
"G"gfe "D"fed| "C"efg "G"dBA| "Em"Bee "G"dBA| "Em"Bee "D"e2f|
"G"gfe "D"fed| "C"efg "G"dBA| BAB GAB| "D"AGF "G"G3|
"G"gfe "D"fed| "C"efg "G"dBA| "Em"Bee "G"dBA| "Em"Bee "D"e2f|
"G"gbg "D"faf| "C"ege "G"dBA| BAB GAB| "D"AGF "G"G3|]
%%text 9/1/98
